build/svg/sd/res/foilh06.svg

<?xml version="1.0" encoding="UTF-8" standalone="no"?>
<svg
   xmlns:dc="http://purl.org/dc/elements/1.1/"
   xmlns:cc="http://creativecommons.org/ns#"
   xmlns:rdf="http://www.w3.org/1999/02/22-rdf-syntax-ns#"
   xmlns:svg="http://www.w3.org/2000/svg"
   xmlns="http://www.w3.org/2000/svg"
   xmlns:xlink="http://www.w3.org/1999/xlink"
   xmlns:sodipodi="http://sodipodi.sourceforge.net/DTD/sodipodi-0.dtd"
   xmlns:inkscape="http://www.inkscape.org/namespaces/inkscape"
   height="57"
   viewBox="0 0 70.999998 56.999999"
   width="71"
   version="1.1"
   id="svg29"
   sodipodi:docname="foilh06.svg"
   inkscape:version="0.92.4 (5da689c313, 2019-01-14)"
   inkscape:export-filename="/home/jupiter007/Libreoffice yaru theme/build/sd/res/foilh06.png"
   inkscape:export-xdpi="96"
   inkscape:export-ydpi="96">
  <metadata
     id="metadata35">
    <rdf:RDF>
      <cc:Work
         rdf:about="">
        <dc:format>image/svg+xml</dc:format>
        <dc:type
           rdf:resource="http://purl.org/dc/dcmitype/StillImage" />
      </cc:Work>
    </rdf:RDF>
  </metadata>
  <defs
     id="defs33">
    <linearGradient
       inkscape:collect="always"
       xlink:href="#linearGradient927"
       id="linearGradient929"
       x1="168"
       y1="234.00002"
       x2="168"
       y2="284"
       gradientUnits="userSpaceOnUse"
       gradientTransform="matrix(-1,0,0,1,202.99991,-231.00001)" />
    <linearGradient
       inkscape:collect="always"
       id="linearGradient927">
      <stop
         style="stop-color:#ffffff;stop-opacity:1;"
         offset="0"
         id="stop923" />
      <stop
         id="stop933"
         offset="0.125"
         style="stop-color:#ffffff;stop-opacity:0.09803922" />
      <stop
         id="stop931"
         offset="0.92500001"
         style="stop-color:#ffffff;stop-opacity:0.09803922" />
      <stop
         style="stop-color:#ffffff;stop-opacity:0.49803922"
         offset="1"
         id="stop925" />
    </linearGradient>
  </defs>
  <sodipodi:namedview
     pagecolor="#ffffff"
     bordercolor="#666666"
     borderopacity="1"
     objecttolerance="10"
     gridtolerance="10"
     guidetolerance="10"
     inkscape:pageopacity="0"
     inkscape:pageshadow="2"
     inkscape:window-width="1920"
     inkscape:window-height="1011"
     id="namedview31"
     showgrid="true"
     inkscape:zoom="11.710681"
     inkscape:cx="38.566966"
     inkscape:cy="36.142151"
     inkscape:window-x="0"
     inkscape:window-y="32"
     inkscape:window-maximized="1"
     inkscape:current-layer="svg29">
    <inkscape:grid
       type="xygrid"
       id="grid868" />
  </sodipodi:namedview>
  <linearGradient
     id="a"
     gradientTransform="matrix(1.0333333 0 0 1.0434783 -25.666667 -41.661711)"
     gradientUnits="userSpaceOnUse"
     x1="798"
     x2="798"
     y1="958.21936"
     y2="912.21936">
    <stop
       offset="0"
       stop-color="#bdc3c7"
       id="stop2" />
    <stop
       offset="1"
       stop-color="#dadfe1"
       id="stop4" />
  </linearGradient>
  <linearGradient
     id="b"
     gradientTransform="matrix(1.0384615 0 0 1.3793103 -.30769 -15.82759)"
     gradientUnits="userSpaceOnUse"
     x1="34"
     x2="34"
     y1="47.000004"
     y2="18.000004">
    <stop
       offset="0"
       stop-color="#5e6b78"
       id="stop7" />
    <stop
       offset="1"
       stop-color="#768492"
       id="stop9" />
  </linearGradient>
  <linearGradient
     id="c"
     gradientUnits="userSpaceOnUse"
     x1="777"
     x2="817"
     y1="914.21936"
     y2="954.21936">
    <stop
       offset="0"
       stop-color="#383e51"
       id="stop12" />
    <stop
       offset="1"
       stop-color="#655c6f"
       stop-opacity="0"
       id="stop14" />
  </linearGradient>
  <path
     style="color:#000000;font-style:normal;font-variant:normal;font-weight:normal;font-stretch:normal;font-size:medium;line-height:normal;font-family:sans-serif;font-variant-ligatures:normal;font-variant-position:normal;font-variant-caps:normal;font-variant-numeric:normal;font-variant-alternates:normal;font-feature-settings:normal;text-indent:0;text-align:start;text-decoration:none;text-decoration-line:none;text-decoration-style:solid;text-decoration-color:#000000;letter-spacing:normal;word-spacing:normal;text-transform:none;writing-mode:lr-tb;direction:ltr;text-orientation:mixed;dominant-baseline:auto;baseline-shift:baseline;text-anchor:start;white-space:normal;shape-padding:0;clip-rule:nonzero;display:inline;overflow:visible;visibility:visible;opacity:0.2;isolation:auto;mix-blend-mode:normal;color-interpolation:sRGB;color-interpolation-filters:linearRGB;solid-color:#000000;solid-opacity:1;vector-effect:none;fill:#000000;fill-opacity:1;fill-rule:nonzero;stroke:none;stroke-width:1;stroke-linecap:round;stroke-linejoin:round;stroke-miterlimit:4;stroke-dasharray:none;stroke-dashoffset:0;stroke-opacity:1;color-rendering:auto;image-rendering:auto;shape-rendering:auto;text-rendering:auto;enable-background:accumulate"
     d="m 47.931729,2.99961 c 6.834569,0 10.873251,0.448562 13.246087,2.81836 2.372854,2.369801 2.822274,6.404123 2.822274,13.232421 V 38.94961 c 0,6.828273 -0.44942,10.862612 -2.822274,13.232421 -2.372836,2.369809 -6.411518,2.81836 -13.246087,2.81836 H 23.068268 c -6.834568,0 -10.873246,-0.448551 -13.246086,-2.81836 C 7.44933,49.812222 6.99991,45.777883 6.99991,38.949609 V 19.050391 c 0,-6.828298 0.44942,-10.86262 2.822272,-13.232421 2.37284,-2.369798 6.411518,-2.81836 13.246086,-2.81836 z"
     id="path907"
     inkscape:connector-curvature="0"
     sodipodi:nodetypes="scsscsscsscss" />
  <path
     sodipodi:nodetypes="sssssssss"
     inkscape:connector-curvature="0"
     id="path888"
     d="m 47.931729,2.499609 c 13.621617,0 15.568361,1.941872 15.568361,15.550783 v 19.899219 c 0,13.608862 -1.946744,15.55078 -15.568361,15.55078 H 23.068268 c -13.621617,0 -15.568357,-1.941918 -15.568357,-15.55078 V 18.050393 c 0,-13.608912 1.94674,-15.550784 15.568357,-15.550784 z"
     style="display:inline;opacity:1;fill:#e7e7e7;fill-opacity:1;stroke:none;stroke-width:2;stroke-linecap:round;stroke-linejoin:round;stroke-miterlimit:4;stroke-dasharray:none;stroke-dashoffset:0;stroke-opacity:1;enable-background:new" />
  <path
     style="color:#000000;font-style:normal;font-variant:normal;font-weight:normal;font-stretch:normal;font-size:medium;line-height:normal;font-family:sans-serif;font-variant-ligatures:normal;font-variant-position:normal;font-variant-caps:normal;font-variant-numeric:normal;font-variant-alternates:normal;font-feature-settings:normal;text-indent:0;text-align:start;text-decoration:none;text-decoration-line:none;text-decoration-style:solid;text-decoration-color:#000000;letter-spacing:normal;word-spacing:normal;text-transform:none;writing-mode:lr-tb;direction:ltr;text-orientation:mixed;dominant-baseline:auto;baseline-shift:baseline;text-anchor:start;white-space:normal;shape-padding:0;clip-rule:nonzero;display:inline;overflow:visible;visibility:visible;opacity:0.5;isolation:auto;mix-blend-mode:normal;color-interpolation:sRGB;color-interpolation-filters:linearRGB;solid-color:#000000;solid-opacity:1;vector-effect:none;fill:none;fill-opacity:1;fill-rule:nonzero;stroke:url(#linearGradient929);stroke-width:1;stroke-linecap:round;stroke-linejoin:round;stroke-miterlimit:4;stroke-dasharray:none;stroke-dashoffset:0;stroke-opacity:1;color-rendering:auto;image-rendering:auto;shape-rendering:auto;text-rendering:auto;enable-background:accumulate"
     d="M 47.931729,3.499611 H 23.068268 c -6.763286,0 -10.363067,0.55877 -12.185547,2.378911 -1.82247,1.820129 -2.382811,5.415099 -2.382811,12.17187 v 19.899219 c 0,6.756749 0.560341,10.35173 2.382811,12.17187 1.82248,1.820149 5.422261,2.37891 12.185547,2.37891 h 24.863461 c 6.763287,0 10.363071,-0.558761 12.185548,-2.37891 C 61.93975,48.30134 62.50009,44.70636 62.50009,37.949611 V 18.050392 c 0,-6.756771 -0.56034,-10.351741 -2.382813,-12.17187 C 58.294796,4.058381 54.695016,3.499611 47.931729,3.499611 Z"
     id="path911"
     inkscape:connector-curvature="0"
     sodipodi:nodetypes="sssssssssssss" />
  <path
     style="display:inline;opacity:0.4;fill:none;fill-opacity:1;stroke:#000000;stroke-width:1;stroke-linecap:round;stroke-linejoin:round;stroke-miterlimit:4;stroke-dasharray:none;stroke-dashoffset:0;stroke-opacity:1;enable-background:new"
     d="m 47.931729,2.499609 c 13.621617,0 15.568361,1.941872 15.568361,15.550783 v 19.899219 c 0,13.608862 -1.946744,15.55078 -15.568361,15.55078 H 23.068268 c -13.621617,0 -15.568357,-1.941918 -15.568357,-15.55078 V 18.050393 c 0,-13.608912 1.94674,-15.550784 15.568357,-15.550784 z"
     id="path892"
     inkscape:connector-curvature="0"
     sodipodi:nodetypes="sssssssss" />
  <rect
     style="opacity:0.98799995;fill:#808080;fill-opacity:1;fill-rule:nonzero;stroke:none;stroke-width:1.10000002;stroke-linecap:butt;stroke-linejoin:round;stroke-miterlimit:4;stroke-dasharray:none;stroke-dashoffset:0;stroke-opacity:1"
     id="rect882"
     width="20"
     height="13"
     x="13"
     y="7"
     ry="3" />
  <rect
     ry="3"
     y="22"
     x="13"
     height="13"
     width="20"
     id="rect886"
     style="opacity:0.98799995;fill:#808080;fill-opacity:1;fill-rule:nonzero;stroke:none;stroke-width:1.10000002;stroke-linecap:butt;stroke-linejoin:round;stroke-miterlimit:4;stroke-dasharray:none;stroke-dashoffset:0;stroke-opacity:1" />
  <rect
     style="opacity:0.98799995;fill:#808080;fill-opacity:1;fill-rule:nonzero;stroke:none;stroke-width:1.10000002;stroke-linecap:butt;stroke-linejoin:round;stroke-miterlimit:4;stroke-dasharray:none;stroke-dashoffset:0;stroke-opacity:1"
     id="rect888"
     width="20"
     height="13"
     x="13"
     y="37"
     ry="3" />
  <rect
     ry="3"
     y="37"
     x="38"
     height="13"
     width="20"
     id="rect890"
     style="opacity:0.98799995;fill:#808080;fill-opacity:1;fill-rule:nonzero;stroke:none;stroke-width:1.10000002;stroke-linecap:butt;stroke-linejoin:round;stroke-miterlimit:4;stroke-dasharray:none;stroke-dashoffset:0;stroke-opacity:1" />
  <rect
     style="opacity:0.98799995;fill:#808080;fill-opacity:1;fill-rule:nonzero;stroke:none;stroke-width:1.10000002;stroke-linecap:butt;stroke-linejoin:round;stroke-miterlimit:4;stroke-dasharray:none;stroke-dashoffset:0;stroke-opacity:1"
     id="rect892"
     width="20"
     height="13"
     x="38"
     y="22"
     ry="3" />
  <rect
     ry="3"
     y="7"
     x="38"
     height="13"
     width="20"
     id="rect894"
     style="opacity:0.98799995;fill:#808080;fill-opacity:1;fill-rule:nonzero;stroke:none;stroke-width:1.10000002;stroke-linecap:butt;stroke-linejoin:round;stroke-miterlimit:4;stroke-dasharray:none;stroke-dashoffset:0;stroke-opacity:1" />
</svg>

<svg xmlns="http://www.w3.org/2000/svg" xmlns:xlink="http://www.w3.org/1999/xlink" height="57" width="71"><defs><linearGradient xlink:href="#a" id="b" x1="168" y1="234" x2="168" y2="284" gradientUnits="userSpaceOnUse" gradientTransform="matrix(-1 0 0 1 203 -231)"/><linearGradient id="a"><stop offset="0" stop-color="#fff"/><stop offset=".125" stop-color="#fff" stop-opacity=".098"/><stop offset=".925" stop-color="#fff" stop-opacity=".098"/><stop offset="1" stop-color="#fff" stop-opacity=".498"/></linearGradient></defs><path style="line-height:normal;font-variant-ligatures:normal;font-variant-position:normal;font-variant-caps:normal;font-variant-numeric:normal;font-variant-alternates:normal;font-feature-settings:normal;text-indent:0;text-align:start;text-decoration-line:none;text-decoration-style:solid;text-decoration-color:#000;text-transform:none;text-orientation:mixed;white-space:normal;shape-padding:0;isolation:auto;mix-blend-mode:normal;solid-color:#000;solid-opacity:1" d="M47.932 3c6.834 0 10.873.448 13.246 2.818C63.55 8.188 64 12.222 64 19.05v19.9c0 6.828-.45 10.862-2.822 13.232C58.805 54.552 54.766 55 47.932 55H23.068c-6.834 0-10.873-.448-13.246-2.818C7.45 49.812 7 45.778 7 38.95v-19.9c0-6.828.45-10.862 2.822-13.232C12.195 3.448 16.234 3 23.068 3z" color="#000" font-weight="400" font-family="sans-serif" overflow="visible" opacity=".2"/><path d="M47.932 2.5C61.553 2.5 63.5 4.44 63.5 18.05v19.9c0 13.608-1.947 15.55-15.568 15.55H23.068C9.447 53.5 7.5 51.558 7.5 37.95v-19.9C7.5 4.441 9.447 2.5 23.068 2.5z" fill="#e7e7e7"/><path style="line-height:normal;font-variant-ligatures:normal;font-variant-position:normal;font-variant-caps:normal;font-variant-numeric:normal;font-variant-alternates:normal;font-feature-settings:normal;text-indent:0;text-align:start;text-decoration-line:none;text-decoration-style:solid;text-decoration-color:#000;text-transform:none;text-orientation:mixed;white-space:normal;shape-padding:0;isolation:auto;mix-blend-mode:normal;solid-color:#000;solid-opacity:1" d="M47.932 3.5H23.068c-6.763 0-10.363.558-12.185 2.379C9.06 7.699 8.5 11.294 8.5 18.05v19.9c0 6.756.56 10.351 2.383 12.171 1.822 1.82 5.422 2.38 12.185 2.38h24.864c6.763 0 10.363-.56 12.185-2.38 1.823-1.82 2.383-5.415 2.383-12.171v-19.9c0-6.756-.56-10.351-2.383-12.171-1.822-1.82-5.422-2.38-12.185-2.38z" color="#000" font-weight="400" font-family="sans-serif" overflow="visible" opacity=".5" fill="none" stroke="url(#b)" stroke-linecap="round" stroke-linejoin="round"/><path d="M47.932 2.5C61.553 2.5 63.5 4.44 63.5 18.05v19.9c0 13.608-1.947 15.55-15.568 15.55H23.068C9.447 53.5 7.5 51.558 7.5 37.95v-19.9C7.5 4.441 9.447 2.5 23.068 2.5z" opacity=".4" fill="none" stroke="#000" stroke-linecap="round" stroke-linejoin="round"/><rect width="20" height="13" x="13" y="7" ry="3" opacity=".988" fill="gray"/><rect ry="3" y="22" x="13" height="13" width="20" opacity=".988" fill="gray"/><rect width="20" height="13" x="13" y="37" ry="3" opacity=".988" fill="gray"/><rect ry="3" y="37" x="38" height="13" width="20" opacity=".988" fill="gray"/><rect width="20" height="13" x="38" y="22" ry="3" opacity=".988" fill="gray"/><rect ry="3" y="7" x="38" height="13" width="20" opacity=".988" fill="gray"/></svg>
